packages/dnb-ui-lib/assets/icons/card_out.svg

<svg width="16" height="16" viewBox="0 0 16 16" fill="none" xmlns="http://www.w3.org/2000/svg">
<path d="M3.33333 4.42778C2.91912 4.42778 2.58333 4.76356 2.58333 5.17778C2.58333 5.59199 2.91912 5.92778 3.33333 5.92778V4.42778ZM5.66667 5.92778C6.08088 5.92778 6.41667 5.59199 6.41667 5.17778C6.41667 4.76356 6.08088 4.42778 5.66667 4.42778V5.92778ZM3.33333 9.40556C2.91912 9.40556 2.58333 9.74134 2.58333 10.1556C2.58333 10.5698 2.91912 10.9056 3.33333 10.9056V9.40556ZM8 10.9056C8.41421 10.9056 8.75 10.5698 8.75 10.1556C8.75 9.74134 8.41421 9.40556 8 9.40556V10.9056ZM10.1778 7.22778C9.76357 7.22778 9.42778 7.56356 9.42778 7.97778C9.42778 8.39199 9.76357 8.72778 10.1778 8.72778V7.22778ZM12.7586 9.003C12.4657 9.2959 12.4657 9.77077 12.7586 10.0637C13.0515 10.3566 13.5263 10.3566 13.8192 10.0637L12.7586 9.003ZM14.8444 7.97778L15.3748 8.50811C15.5154 8.36746 15.5944 8.17669 15.5944 7.97778C15.5944 7.77886 15.5154 7.5881 15.3748 7.44745L14.8444 7.97778ZM13.8192 5.89189C13.5263 5.599 13.0515 5.599 12.7586 5.89189C12.4657 6.18479 12.4657 6.65966 12.7586 6.95255L13.8192 5.89189ZM14.1522 3.9491C14.4002 4.28084 14.8702 4.34871 15.202 4.10067C15.5337 3.85264 15.6016 3.38264 15.3535 3.0509L14.1522 3.9491ZM15.3535 12.4491C15.6016 12.1174 15.5337 11.6474 15.202 11.3993C14.8702 11.1513 14.4002 11.2192 14.1522 11.5509L15.3535 12.4491ZM2.24444 3.75H13.7556V2.25H2.24444V3.75ZM13.7556 11.75H2.24444V13.25H13.7556V11.75ZM1.75 11.2556V4.24444H0.25V11.2556H1.75ZM3.33333 5.92778H5.66667V4.42778H3.33333V5.92778ZM3.33333 10.9056H8V9.40556H3.33333V10.9056ZM2.24444 11.75C1.97137 11.75 1.75 11.5286 1.75 11.2556H0.25C0.25 12.3571 1.14294 13.25 2.24444 13.25V11.75ZM2.24444 2.25C1.14294 2.25 0.25 3.14294 0.25 4.24444H1.75C1.75 3.97137 1.97137 3.75 2.24444 3.75V2.25ZM13.8192 10.0637L15.3748 8.50811L14.3141 7.44745L12.7586 9.003L13.8192 10.0637ZM15.3748 7.44745L13.8192 5.89189L12.7586 6.95255L14.3141 8.50811L15.3748 7.44745ZM10.1778 8.72778H14.8444V7.22778H10.1778V8.72778ZM13.7556 3.75C13.9172 3.75 14.0608 3.8268 14.1522 3.9491L15.3535 3.0509C14.9911 2.56615 14.4102 2.25 13.7556 2.25V3.75ZM13.7556 13.25C14.4102 13.25 14.9911 12.9339 15.3535 12.4491L14.1522 11.5509C14.0608 11.6732 13.9172 11.75 13.7556 11.75V13.25Z" fill="black"/>
</svg>

<svg width="16" height="16" viewBox="0 0 16 16" fill="none" xmlns="http://www.w3.org/2000/svg"><path d="M3.333 4.428a.75.75 0 100 1.5v-1.5zm2.334 1.5a.75.75 0 000-1.5v1.5zM3.333 9.406a.75.75 0 000 1.5v-1.5zM8 10.906a.75.75 0 000-1.5v1.5zm2.178-3.678a.75.75 0 100 1.5v-1.5zm2.58 1.775a.75.75 0 001.061 1.06l-1.06-1.06zm2.086-1.025l.53.53a.75.75 0 000-1.06l-.53.53zM13.82 5.892a.75.75 0 10-1.06 1.06l1.06-1.06zm.333-1.943a.75.75 0 101.202-.898l-1.202.898zm1.202 8.5a.75.75 0 10-1.202-.898l1.202.898zM2.244 3.75h11.512v-1.5H2.244v1.5zm11.512 8H2.244v1.5h11.512v-1.5zM1.75 11.256V4.244H.25v7.012h1.5zm1.583-5.328h2.334v-1.5H3.333v1.5zm0 4.978H8v-1.5H3.333v1.5zm-1.089.844a.494.494 0 01-.494-.494H.25c0 1.101.893 1.994 1.994 1.994v-1.5zm0-9.5A1.994 1.994 0 00.25 4.244h1.5c0-.273.221-.494.494-.494v-1.5zm11.575 7.814l1.556-1.556-1.06-1.06-1.556 1.555 1.06 1.06zm1.556-2.617l-1.556-1.555-1.06 1.06 1.555 1.556 1.06-1.06zm-5.197 1.28h4.666v-1.5h-4.666v1.5zm3.578-4.977a.49.49 0 01.396.2l1.202-.9a1.992 1.992 0 00-1.598-.8v1.5zm0 9.5c.654 0 1.235-.316 1.598-.8l-1.202-.9a.493.493 0 01-.396.2v1.5z" fill="#000"/></svg>
